X: 11722
T: El Soldáu
R: slip jig
M: 9/8
K: Gmajor
[M:3/8]
|:GBB|BAB|cBA|G2E|DBB|c2A-|A2 z|
GBB|BAB|cBA|G2E|DBB A2G-|G2 z:|
|:Gcc|BAB|c2 B|ddc|B2A|G2 z|GBB|
BAB|G2=F-|=F2 z|FBB|BAB|c2 B//c//B//A//|G3-|HG2 z||

